icon/pk/in-flight.svg

<svg viewBox="0 0 48 48" fill="none" xmlns="http://www.w3.org/2000/svg" height="1em" width="1em">
  <path d="M12 40C12 32.8203 17.3726 27 24 27C30.6274 27 36 32.8203 36 40" stroke="black" stroke-width="4" stroke-linecap="round"/>
  <path d="M13 37C13 38 15.5 39 17 38C18.5 37 18.9597 34.495 20.4997 34.9262C22.0396 35.3574 22 38.5 24 40C26 41.5 29.5 41 31 38.5C32.5 36 30.9207 35.325 32.0612 33.7031C32.8215 32.6219 33.7919 32.8871 34 33" stroke="black" stroke-width="4" stroke-linecap="round"/>
  <path d="M23 21H25" stroke="black" stroke-width="4" stroke-linecap="round" stroke-linejoin="round"/>
  <path d="M32.1514 22.4702L33.8475 23.53" stroke="black" stroke-width="4" stroke-linecap="round" stroke-linejoin="round"/>
  <path d="M14.1514 23.53L15.8475 22.4701" stroke="black" stroke-width="4" stroke-linecap="round" stroke-linejoin="round"/>
  <path d="M39.0586 28.134L40.0586 29.8661" stroke="black" stroke-width="4" stroke-linecap="round" stroke-linejoin="round"/>
  <path d="M8.05859 29.8661L9.05859 28.134" stroke="black" stroke-width="4" stroke-linecap="round" stroke-linejoin="round"/>
  <path d="M41.8945 37.0056L42.1036 38.9946" stroke="black" stroke-width="4" stroke-linecap="round" stroke-linejoin="round"/>
  <path d="M4.89453 38.9946L5.10359 37.0056" stroke="black" stroke-width="4" stroke-linecap="round" stroke-linejoin="round"/>
  <path d="M42.0003 10L9 18" stroke="black" stroke-width="4" stroke-linecap="round"/>
  <path d="M16 7L29 13L17 16L12 9L16 7Z" fill="#2F88FF" stroke="black" stroke-width="4" stroke-linecap="round" stroke-linejoin="round"/>
  <path d="M9 18L6 14" stroke="black" stroke-width="4" stroke-linecap="round" stroke-linejoin="round"/>
</svg>

<svg width="48" height="48" fill="none" xmlns="http://www.w3.org/2000/svg"><path d="M12 40c0-7.18 5.373-13 12-13s12 5.82 12 13" stroke="#000" stroke-width="4" stroke-linecap="round"/><path d="M13 37c0 1 2.5 2 4 1s1.96-3.505 3.5-3.074C22.04 35.357 22 38.5 24 40s5.5 1 7-1.5-.08-3.175 1.061-4.797c.76-1.081 1.73-.816 1.939-.703" stroke="#000" stroke-width="4" stroke-linecap="round"/><path d="M23 21h2M32.151 22.47l1.696 1.06M14.151 23.53l1.697-1.06M39.059 28.134l1 1.732M8.059 29.866l1-1.732M41.895 37.006l.209 1.989M4.895 38.995l.209-1.99" stroke="#000" stroke-width="4" stroke-linecap="round" stroke-linejoin="round"/><path d="M42 10 9 18" stroke="#000" stroke-width="4" stroke-linecap="round"/><path d="m16 7 13 6-12 3-5-7 4-2Z" fill="#2F88FF" stroke="#000" stroke-width="4" stroke-linecap="round" stroke-linejoin="round"/><path d="m9 18-3-4" stroke="#000" stroke-width="4" stroke-linecap="round" stroke-linejoin="round"/></svg>
